img/work.svg

<svg width="36" height="36" viewBox="0 0 36 36" fill="none" xmlns="http://www.w3.org/2000/svg">
<g clip-path="url(#clip0_9_42)">
<path d="M23.157 14.2325L22.5752 13.9416C22.4802 13.8941 20.2214 12.7781 17.8947 12.7781C15.5681 12.7781 13.3093 13.8941 13.2143 13.9416L12.6325 14.2325V16.9879H5.26538V35.9319H30.5241V16.9879H23.157V14.2325ZM14.7374 15.5727C15.4428 15.2936 16.6865 14.8829 17.8947 14.8829C19.1033 14.8829 20.3472 15.2938 21.0521 15.5727V16.9878H14.7374V15.5727ZM28.4192 33.8269H7.37027V25.616L16.8423 27.3381V29.6171H18.9472V27.3381L28.4192 25.616V33.8269ZM28.4192 23.4765L17.8947 25.3901L7.37027 23.4765V19.0927H28.4192V23.4765Z" fill="#2F3136"/>
<path d="M9.19355 15.0857L9.23312 11.4062L11.3638 8.40619L7.87665 7.23152L5.68188 4.27808L3.48711 7.23152L0 8.40619L2.13071 11.4062L2.17029 15.0857L5.68188 13.9863L9.19355 15.0857ZM4.22845 10.7246L3.35632 9.49667L4.78358 9.01591L5.68188 7.80707L6.58018 9.01591L8.00744 9.49667L7.13531 10.7246L7.1191 12.2306L5.68181 11.7806L4.24452 12.2306L4.22845 10.7246Z" fill="#2F3136"/>
<path d="M14.3832 10.8758L17.8947 9.77638L21.4064 10.8758L21.4459 7.19627L23.5766 4.19623L20.0895 3.02156L17.8947 0.0681152L15.7 3.02156L12.2128 4.19623L14.3435 7.19627L14.3832 10.8758ZM16.9965 4.80602L17.8947 3.59718L18.793 4.80602L20.2203 5.28685L19.3482 6.5147L19.332 8.02069L17.8947 7.57073L16.4575 8.02069L16.4412 6.5147L15.5691 5.28678L16.9965 4.80602Z" fill="#2F3136"/>
<path d="M32.5128 7.23152L30.3181 4.27808L28.1234 7.23152L24.6362 8.40619L26.7669 11.4062L26.8064 15.0857L30.3181 13.9863L33.8297 15.0857L33.8692 11.4063L36 8.40626L32.5128 7.23152ZM31.7715 10.7246L31.7553 12.2306L30.3181 11.7806L28.8808 12.2306L28.8646 10.7246L27.9926 9.49667L29.4198 9.01584L30.3182 7.807L31.2165 9.01584L32.6438 9.4966L31.7715 10.7246Z" fill="#2F3136"/>
</g>
<defs>
<clipPath id="clip0_9_42">
<rect width="36" height="36" fill="white"/>
</clipPath>
</defs>
</svg>

<svg width="36" height="36" fill="none" xmlns="http://www.w3.org/2000/svg"><g clip-path="url(#a)" fill="#2F3136"><path d="m23.157 14.232-.582-.29c-.095-.048-2.354-1.164-4.68-1.164-2.327 0-4.586 1.116-4.68 1.164l-.582.29v2.756H5.264v18.944h25.26V16.988h-7.368v-2.755zm-8.42 1.34c.706-.278 1.95-.69 3.158-.69s2.452.412 3.157.69v1.416h-6.315v-1.415zM28.42 33.828H7.37v-8.211l9.472 1.722v2.28h2.105v-2.28l9.472-1.722v8.21zm0-10.35L17.895 25.39 7.37 23.477v-4.384h21.05v4.384zM9.194 15.086l.04-3.68 2.13-3-3.487-1.174-2.195-2.954-2.195 2.954L0 8.406l2.13 3 .04 3.68 3.512-1.1 3.512 1.1zm-4.966-4.361-.872-1.228 1.428-.481.898-1.209.898 1.209 1.427.48-.872 1.229-.016 1.506-1.437-.45-1.437.45-.017-1.506zM14.383 10.876l3.512-1.1 3.511 1.1.04-3.68 2.13-3-3.486-1.174L17.895.068 15.7 3.022l-3.487 1.174 2.13 3 .04 3.68zm2.614-6.07.898-1.209.898 1.209 1.427.48-.872 1.229-.016 1.506-1.437-.45-1.438.45-.016-1.506-.872-1.228 1.428-.481zM32.513 7.232l-2.195-2.954-2.195 2.954-3.487 1.174 2.13 3 .04 3.68 3.512-1.1 3.512 1.1.04-3.68 2.13-3-3.487-1.174zm-.741 3.493-.017 1.506-1.437-.45-1.437.45-.016-1.506-.872-1.228 1.427-.481.898-1.209.898 1.209 1.428.48-.872 1.229z"/></g><defs><clipPath id="a"><path fill="#fff" d="M0 0h36v36H0z"/></clipPath></defs></svg>
